X: 1
T: Aileen's Reel
C: Neil Barron (2002)
R: reel
B: Social Dances 2002 (Leeds RSCDS 40th Anniversary Book) #5
N: Tune for the dance "Dancing On"
Z: 2009 John Chambers <jc:trillian.mit.edu>
S: printed MS of unknown origin (from J. McColl)
M: C|
L: 1/8
K: A
E \
| "A"A2AG ABcd | "A"e2e2 "A7"cAA2 | "D"FAA2 "A"EAA2 | "B7"B2B2 "E7"GEE2 || "A"A2AG ABcd |
| "A"e2e2 "A7"cAA2 | "D"FAA2 "A"cAGF | "E7"E2e2 "A"cAA :: G | "D"F2A2 FDDF | "A"Eee2 cAAF |
| "E7"EGG2 GBB2 | "A"EAA2 ceeG || "D"F2A2 FDDF | "A"Eee2 cAAG | "D"FAA2 "A"cAGF | "E7"E2e2 "A"cAA :|
